src/assets/asset3.svg

<svg height="235" viewBox="0 0 348 235" width="348" xmlns="http://www.w3.org/2000/svg"><g fill="none" fill-rule="evenodd"><g fill="#e1612b" transform="translate(-133 116)"><path d="m221.5 237c-3.589851 0-6.5-2.910149-6.5-6.5s2.910149-6.5 6.5-6.5 6.5 2.910149 6.5 6.5-2.910149 6.5-6.5 6.5zm0-45c-3.589851 0-6.5-2.910149-6.5-6.5s2.910149-6.5 6.5-6.5 6.5 2.910149 6.5 6.5-2.910149 6.5-6.5 6.5zm0-45c-3.589851 0-6.5-2.910149-6.5-6.5s2.910149-6.5 6.5-6.5 6.5 2.910149 6.5 6.5-2.910149 6.5-6.5 6.5zm0-44c-3.589851 0-6.5-2.910149-6.5-6.5 0-3.5898509 2.910149-6.5 6.5-6.5s6.5 2.9101491 6.5 6.5c0 3.589851-2.910149 6.5-6.5 6.5zm0-45c-3.589851 0-6.5-2.9101491-6.5-6.5s2.910149-6.5 6.5-6.5 6.5 2.9101491 6.5 6.5-2.910149 6.5-6.5 6.5zm0-45c-3.589851 0-6.5-2.9101491-6.5-6.5 0-3.58985087 2.910149-6.5 6.5-6.5s6.5 2.91014913 6.5 6.5c0 3.5898509-2.910149 6.5-6.5 6.5zm-43 224c-3.589851 0-6.5-2.910149-6.5-6.5s2.910149-6.5 6.5-6.5 6.5 2.910149 6.5 6.5-2.910149 6.5-6.5 6.5zm0-45c-3.589851 0-6.5-2.910149-6.5-6.5s2.910149-6.5 6.5-6.5 6.5 2.910149 6.5 6.5-2.910149 6.5-6.5 6.5zm0-45c-3.589851 0-6.5-2.910149-6.5-6.5s2.910149-6.5 6.5-6.5 6.5 2.910149 6.5 6.5-2.910149 6.5-6.5 6.5zm0-44c-3.589851 0-6.5-2.910149-6.5-6.5 0-3.5898509 2.910149-6.5 6.5-6.5s6.5 2.9101491 6.5 6.5c0 3.589851-2.910149 6.5-6.5 6.5zm0-45c-3.589851 0-6.5-2.9101491-6.5-6.5s2.910149-6.5 6.5-6.5 6.5 2.9101491 6.5 6.5-2.910149 6.5-6.5 6.5zm0-45c-3.589851 0-6.5-2.9101491-6.5-6.5 0-3.58985087 2.910149-6.5 6.5-6.5s6.5 2.91014913 6.5 6.5c0 3.5898509-2.910149 6.5-6.5 6.5zm-42 224c-3.589851 0-6.5-2.910149-6.5-6.5s2.910149-6.5 6.5-6.5 6.5 2.910149 6.5 6.5-2.910149 6.5-6.5 6.5zm0-45c-3.589851 0-6.5-2.910149-6.5-6.5s2.910149-6.5 6.5-6.5 6.5 2.910149 6.5 6.5-2.910149 6.5-6.5 6.5zm0-45c-3.589851 0-6.5-2.910149-6.5-6.5s2.910149-6.5 6.5-6.5 6.5 2.910149 6.5 6.5-2.910149 6.5-6.5 6.5zm0-44c-3.589851 0-6.5-2.910149-6.5-6.5 0-3.5898509 2.910149-6.5 6.5-6.5s6.5 2.9101491 6.5 6.5c0 3.589851-2.910149 6.5-6.5 6.5zm0-45c-3.589851 0-6.5-2.9101491-6.5-6.5s2.910149-6.5 6.5-6.5 6.5 2.9101491 6.5 6.5-2.910149 6.5-6.5 6.5zm0-45c-3.589851 0-6.5-2.9101491-6.5-6.5 0-3.58985087 2.910149-6.5 6.5-6.5s6.5 2.91014913 6.5 6.5c0 3.5898509-2.910149 6.5-6.5 6.5zm-45 224c-3.5898509 0-6.5-2.910149-6.5-6.5s2.9101491-6.5 6.5-6.5 6.5 2.910149 6.5 6.5-2.9101491 6.5-6.5 6.5zm0-45c-3.5898509 0-6.5-2.910149-6.5-6.5s2.9101491-6.5 6.5-6.5 6.5 2.910149 6.5 6.5-2.9101491 6.5-6.5 6.5zm0-45c-3.5898509 0-6.5-2.910149-6.5-6.5s2.9101491-6.5 6.5-6.5 6.5 2.910149 6.5 6.5-2.9101491 6.5-6.5 6.5zm0-44c-3.5898509 0-6.5-2.910149-6.5-6.5 0-3.5898509 2.9101491-6.5 6.5-6.5s6.5 2.9101491 6.5 6.5c0 3.589851-2.9101491 6.5-6.5 6.5zm0-45c-3.5898509 0-6.5-2.9101491-6.5-6.5s2.9101491-6.5 6.5-6.5 6.5 2.9101491 6.5 6.5-2.9101491 6.5-6.5 6.5zm0-45c-3.5898509 0-6.5-2.9101491-6.5-6.5 0-3.58985087 2.9101491-6.5 6.5-6.5s6.5 2.91014913 6.5 6.5c0 3.5898509-2.9101491 6.5-6.5 6.5zm-42 224c-3.5898509 0-6.5-2.910149-6.5-6.5s2.9101491-6.5 6.5-6.5 6.5 2.910149 6.5 6.5-2.9101491 6.5-6.5 6.5zm0-45c-3.5898509 0-6.5-2.910149-6.5-6.5s2.9101491-6.5 6.5-6.5 6.5 2.910149 6.5 6.5-2.9101491 6.5-6.5 6.5zm0-45c-3.5898509 0-6.5-2.910149-6.5-6.5s2.9101491-6.5 6.5-6.5 6.5 2.910149 6.5 6.5-2.9101491 6.5-6.5 6.5zm0-44c-3.5898509 0-6.5-2.910149-6.5-6.5 0-3.5898509 2.9101491-6.5 6.5-6.5s6.5 2.9101491 6.5 6.5c0 3.589851-2.9101491 6.5-6.5 6.5zm0-45c-3.5898509 0-6.5-2.9101491-6.5-6.5s2.9101491-6.5 6.5-6.5 6.5 2.9101491 6.5 6.5-2.9101491 6.5-6.5 6.5zm0-45c-3.5898509 0-6.5-2.9101491-6.5-6.5 0-3.58985087 2.9101491-6.5 6.5-6.5s6.5 2.91014913 6.5 6.5c0 3.5898509-2.9101491 6.5-6.5 6.5zm-43 224c-3.58985087 0-6.5-2.910149-6.5-6.5s2.91014913-6.5 6.5-6.5c3.5898509 0 6.5 2.910149 6.5 6.5s-2.9101491 6.5-6.5 6.5zm0-45c-3.58985087 0-6.5-2.910149-6.5-6.5s2.91014913-6.5 6.5-6.5c3.5898509 0 6.5 2.910149 6.5 6.5s-2.9101491 6.5-6.5 6.5zm0-45c-3.58985087 0-6.5-2.910149-6.5-6.5s2.91014913-6.5 6.5-6.5c3.5898509 0 6.5 2.910149 6.5 6.5s-2.9101491 6.5-6.5 6.5zm0-44c-3.58985087 0-6.5-2.910149-6.5-6.5 0-3.5898509 2.91014913-6.5 6.5-6.5 3.5898509 0 6.5 2.9101491 6.5 6.5 0 3.589851-2.9101491 6.5-6.5 6.5zm0-45c-3.58985087 0-6.5-2.9101491-6.5-6.5s2.91014913-6.5 6.5-6.5c3.5898509 0 6.5 2.9101491 6.5 6.5s-2.9101491 6.5-6.5 6.5zm0-45c-3.58985087 0-6.5-2.9101491-6.5-6.5 0-3.58985087 2.91014913-6.5 6.5-6.5 3.5898509 0 6.5 2.91014913 6.5 6.5 0 3.5898509-2.9101491 6.5-6.5 6.5z" transform="matrix(-1 0 0 -1 228 237)"/><path d="m474.5 237c-3.589851 0-6.5-2.910149-6.5-6.5s2.910149-6.5 6.5-6.5 6.5 2.910149 6.5 6.5-2.910149 6.5-6.5 6.5zm0-45c-3.589851 0-6.5-2.910149-6.5-6.5s2.910149-6.5 6.5-6.5 6.5 2.910149 6.5 6.5-2.910149 6.5-6.5 6.5zm0-45c-3.589851 0-6.5-2.910149-6.5-6.5s2.910149-6.5 6.5-6.5 6.5 2.910149 6.5 6.5-2.910149 6.5-6.5 6.5zm0-44c-3.589851 0-6.5-2.910149-6.5-6.5 0-3.5898509 2.910149-6.5 6.5-6.5s6.5 2.9101491 6.5 6.5c0 3.589851-2.910149 6.5-6.5 6.5zm0-45c-3.589851 0-6.5-2.9101491-6.5-6.5s2.910149-6.5 6.5-6.5 6.5 2.9101491 6.5 6.5-2.910149 6.5-6.5 6.5zm0-45c-3.589851 0-6.5-2.9101491-6.5-6.5 0-3.58985087 2.910149-6.5 6.5-6.5s6.5 2.91014913 6.5 6.5c0 3.5898509-2.910149 6.5-6.5 6.5zm-43 224c-3.589851 0-6.5-2.910149-6.5-6.5s2.910149-6.5 6.5-6.5 6.5 2.910149 6.5 6.5-2.910149 6.5-6.5 6.5zm0-45c-3.589851 0-6.5-2.910149-6.5-6.5s2.910149-6.5 6.5-6.5 6.5 2.910149 6.5 6.5-2.910149 6.5-6.5 6.5zm0-45c-3.589851 0-6.5-2.910149-6.5-6.5s2.910149-6.5 6.5-6.5 6.5 2.910149 6.5 6.5-2.910149 6.5-6.5 6.5zm0-44c-3.589851 0-6.5-2.910149-6.5-6.5 0-3.5898509 2.910149-6.5 6.5-6.5s6.5 2.9101491 6.5 6.5c0 3.589851-2.910149 6.5-6.5 6.5zm0-45c-3.589851 0-6.5-2.9101491-6.5-6.5s2.910149-6.5 6.5-6.5 6.5 2.9101491 6.5 6.5-2.910149 6.5-6.5 6.5zm0-45c-3.589851 0-6.5-2.9101491-6.5-6.5 0-3.58985087 2.910149-6.5 6.5-6.5s6.5 2.91014913 6.5 6.5c0 3.5898509-2.910149 6.5-6.5 6.5zm-42 224c-3.589851 0-6.5-2.910149-6.5-6.5s2.910149-6.5 6.5-6.5 6.5 2.910149 6.5 6.5-2.910149 6.5-6.5 6.5zm0-45c-3.589851 0-6.5-2.910149-6.5-6.5s2.910149-6.5 6.5-6.5 6.5 2.910149 6.5 6.5-2.910149 6.5-6.5 6.5zm0-45c-3.589851 0-6.5-2.910149-6.5-6.5s2.910149-6.5 6.5-6.5 6.5 2.910149 6.5 6.5-2.910149 6.5-6.5 6.5zm0-44c-3.589851 0-6.5-2.910149-6.5-6.5 0-3.5898509 2.910149-6.5 6.5-6.5s6.5 2.9101491 6.5 6.5c0 3.589851-2.910149 6.5-6.5 6.5zm0-45c-3.589851 0-6.5-2.9101491-6.5-6.5s2.910149-6.5 6.5-6.5 6.5 2.9101491 6.5 6.5-2.910149 6.5-6.5 6.5zm0-45c-3.589851 0-6.5-2.9101491-6.5-6.5 0-3.58985087 2.910149-6.5 6.5-6.5s6.5 2.91014913 6.5 6.5c0 3.5898509-2.910149 6.5-6.5 6.5zm-45 224c-3.589851 0-6.5-2.910149-6.5-6.5s2.910149-6.5 6.5-6.5 6.5 2.910149 6.5 6.5-2.910149 6.5-6.5 6.5zm0-45c-3.589851 0-6.5-2.910149-6.5-6.5s2.910149-6.5 6.5-6.5 6.5 2.910149 6.5 6.5-2.910149 6.5-6.5 6.5zm0-45c-3.589851 0-6.5-2.910149-6.5-6.5s2.910149-6.5 6.5-6.5 6.5 2.910149 6.5 6.5-2.910149 6.5-6.5 6.5zm0-44c-3.589851 0-6.5-2.910149-6.5-6.5 0-3.5898509 2.910149-6.5 6.5-6.5s6.5 2.9101491 6.5 6.5c0 3.589851-2.910149 6.5-6.5 6.5zm0-45c-3.589851 0-6.5-2.9101491-6.5-6.5s2.910149-6.5 6.5-6.5 6.5 2.9101491 6.5 6.5-2.910149 6.5-6.5 6.5zm0-45c-3.589851 0-6.5-2.9101491-6.5-6.5 0-3.58985087 2.910149-6.5 6.5-6.5s6.5 2.91014913 6.5 6.5c0 3.5898509-2.910149 6.5-6.5 6.5zm-42 224c-3.589851 0-6.5-2.910149-6.5-6.5s2.910149-6.5 6.5-6.5 6.5 2.910149 6.5 6.5-2.910149 6.5-6.5 6.5zm0-45c-3.589851 0-6.5-2.910149-6.5-6.5s2.910149-6.5 6.5-6.5 6.5 2.910149 6.5 6.5-2.910149 6.5-6.5 6.5zm0-45c-3.589851 0-6.5-2.910149-6.5-6.5s2.910149-6.5 6.5-6.5 6.5 2.910149 6.5 6.5-2.910149 6.5-6.5 6.5zm0-44c-3.589851 0-6.5-2.910149-6.5-6.5 0-3.5898509 2.910149-6.5 6.5-6.5s6.5 2.9101491 6.5 6.5c0 3.589851-2.910149 6.5-6.5 6.5zm0-45c-3.589851 0-6.5-2.9101491-6.5-6.5s2.910149-6.5 6.5-6.5 6.5 2.9101491 6.5 6.5-2.910149 6.5-6.5 6.5zm0-45c-3.589851 0-6.5-2.9101491-6.5-6.5 0-3.58985087 2.910149-6.5 6.5-6.5s6.5 2.91014913 6.5 6.5c0 3.5898509-2.910149 6.5-6.5 6.5zm-43 224c-3.589851 0-6.5-2.910149-6.5-6.5s2.910149-6.5 6.5-6.5 6.5 2.910149 6.5 6.5-2.910149 6.5-6.5 6.5zm0-45c-3.589851 0-6.5-2.910149-6.5-6.5s2.910149-6.5 6.5-6.5 6.5 2.910149 6.5 6.5-2.910149 6.5-6.5 6.5zm0-45c-3.589851 0-6.5-2.910149-6.5-6.5s2.910149-6.5 6.5-6.5 6.5 2.910149 6.5 6.5-2.910149 6.5-6.5 6.5zm0-44c-3.589851 0-6.5-2.910149-6.5-6.5 0-3.5898509 2.910149-6.5 6.5-6.5s6.5 2.9101491 6.5 6.5c0 3.589851-2.910149 6.5-6.5 6.5zm0-45c-3.589851 0-6.5-2.9101491-6.5-6.5s2.910149-6.5 6.5-6.5 6.5 2.9101491 6.5 6.5-2.910149 6.5-6.5 6.5zm0-45c-3.589851 0-6.5-2.9101491-6.5-6.5 0-3.58985087 2.910149-6.5 6.5-6.5s6.5 2.91014913 6.5 6.5c0 3.5898509-2.910149 6.5-6.5 6.5z" transform="matrix(-1 0 0 -1 734 237)"/></g><circle cx="44" cy="201" r="198" stroke="#eeecec" stroke-width="6"/></g></svg>

<?xml version="1.0" encoding="UTF-8"?>
<svg width="348px" height="235px" viewBox="0 0 348 235" version="1.1" xmlns="http://www.w3.org/2000/svg" xmlns:xlink="http://www.w3.org/1999/xlink">
    <title>Artboard</title>
    <g id="Artboard" stroke="none" stroke-width="1" fill="none" fill-rule="evenodd">
        <g id="Group" transform="translate(107.500000, 234.500000) rotate(-360.000000) translate(-107.500000, -234.500000) translate(-133.000000, 116.000000)" fill="#E1612B">
            <path d="M221.5,237 C217.910149,237 215,234.089851 215,230.5 C215,226.910149 217.910149,224 221.5,224 C225.089851,224 228,226.910149 228,230.5 C228,234.089851 225.089851,237 221.5,237 Z M221.5,192 C217.910149,192 215,189.089851 215,185.5 C215,181.910149 217.910149,179 221.5,179 C225.089851,179 228,181.910149 228,185.5 C228,189.089851 225.089851,192 221.5,192 Z M221.5,147 C217.910149,147 215,144.089851 215,140.5 C215,136.910149 217.910149,134 221.5,134 C225.089851,134 228,136.910149 228,140.5 C228,144.089851 225.089851,147 221.5,147 Z M221.5,103 C217.910149,103 215,100.089851 215,96.5 C215,92.9101491 217.910149,90 221.5,90 C225.089851,90 228,92.9101491 228,96.5 C228,100.089851 225.089851,103 221.5,103 Z M221.5,58 C217.910149,58 215,55.0898509 215,51.5 C215,47.9101491 217.910149,45 221.5,45 C225.089851,45 228,47.9101491 228,51.5 C228,55.0898509 225.089851,58 221.5,58 Z M221.5,13 C217.910149,13 215,10.0898509 215,6.5 C215,2.91014913 217.910149,0 221.5,0 C225.089851,0 228,2.91014913 228,6.5 C228,10.0898509 225.089851,13 221.5,13 Z M178.5,237 C174.910149,237 172,234.089851 172,230.5 C172,226.910149 174.910149,224 178.5,224 C182.089851,224 185,226.910149 185,230.5 C185,234.089851 182.089851,237 178.5,237 Z M178.5,192 C174.910149,192 172,189.089851 172,185.5 C172,181.910149 174.910149,179 178.5,179 C182.089851,179 185,181.910149 185,185.5 C185,189.089851 182.089851,192 178.5,192 Z M178.5,147 C174.910149,147 172,144.089851 172,140.5 C172,136.910149 174.910149,134 178.5,134 C182.089851,134 185,136.910149 185,140.5 C185,144.089851 182.089851,147 178.5,147 Z M178.5,103 C174.910149,103 172,100.089851 172,96.5 C172,92.9101491 174.910149,90 178.5,90 C182.089851,90 185,92.9101491 185,96.5 C185,100.089851 182.089851,103 178.5,103 Z M178.5,58 C174.910149,58 172,55.0898509 172,51.5 C172,47.9101491 174.910149,45 178.5,45 C182.089851,45 185,47.9101491 185,51.5 C185,55.0898509 182.089851,58 178.5,58 Z M178.5,13 C174.910149,13 172,10.0898509 172,6.5 C172,2.91014913 174.910149,0 178.5,0 C182.089851,0 185,2.91014913 185,6.5 C185,10.0898509 182.089851,13 178.5,13 Z M136.5,237 C132.910149,237 130,234.089851 130,230.5 C130,226.910149 132.910149,224 136.5,224 C140.089851,224 143,226.910149 143,230.5 C143,234.089851 140.089851,237 136.5,237 Z M136.5,192 C132.910149,192 130,189.089851 130,185.5 C130,181.910149 132.910149,179 136.5,179 C140.089851,179 143,181.910149 143,185.5 C143,189.089851 140.089851,192 136.5,192 Z M136.5,147 C132.910149,147 130,144.089851 130,140.5 C130,136.910149 132.910149,134 136.5,134 C140.089851,134 143,136.910149 143,140.5 C143,144.089851 140.089851,147 136.5,147 Z M136.5,103 C132.910149,103 130,100.089851 130,96.5 C130,92.9101491 132.910149,90 136.5,90 C140.089851,90 143,92.9101491 143,96.5 C143,100.089851 140.089851,103 136.5,103 Z M136.5,58 C132.910149,58 130,55.0898509 130,51.5 C130,47.9101491 132.910149,45 136.5,45 C140.089851,45 143,47.9101491 143,51.5 C143,55.0898509 140.089851,58 136.5,58 Z M136.5,13 C132.910149,13 130,10.0898509 130,6.5 C130,2.91014913 132.910149,0 136.5,0 C140.089851,0 143,2.91014913 143,6.5 C143,10.0898509 140.089851,13 136.5,13 Z M91.5,237 C87.9101491,237 85,234.089851 85,230.5 C85,226.910149 87.9101491,224 91.5,224 C95.0898509,224 98,226.910149 98,230.5 C98,234.089851 95.0898509,237 91.5,237 Z M91.5,192 C87.9101491,192 85,189.089851 85,185.5 C85,181.910149 87.9101491,179 91.5,179 C95.0898509,179 98,181.910149 98,185.5 C98,189.089851 95.0898509,192 91.5,192 Z M91.5,147 C87.9101491,147 85,144.089851 85,140.5 C85,136.910149 87.9101491,134 91.5,134 C95.0898509,134 98,136.910149 98,140.5 C98,144.089851 95.0898509,147 91.5,147 Z M91.5,103 C87.9101491,103 85,100.089851 85,96.5 C85,92.9101491 87.9101491,90 91.5,90 C95.0898509,90 98,92.9101491 98,96.5 C98,100.089851 95.0898509,103 91.5,103 Z M91.5,58 C87.9101491,58 85,55.0898509 85,51.5 C85,47.9101491 87.9101491,45 91.5,45 C95.0898509,45 98,47.9101491 98,51.5 C98,55.0898509 95.0898509,58 91.5,58 Z M91.5,13 C87.9101491,13 85,10.0898509 85,6.5 C85,2.91014913 87.9101491,0 91.5,0 C95.0898509,0 98,2.91014913 98,6.5 C98,10.0898509 95.0898509,13 91.5,13 Z M49.5,237 C45.9101491,237 43,234.089851 43,230.5 C43,226.910149 45.9101491,224 49.5,224 C53.0898509,224 56,226.910149 56,230.5 C56,234.089851 53.0898509,237 49.5,237 Z M49.5,192 C45.9101491,192 43,189.089851 43,185.5 C43,181.910149 45.9101491,179 49.5,179 C53.0898509,179 56,181.910149 56,185.5 C56,189.089851 53.0898509,192 49.5,192 Z M49.5,147 C45.9101491,147 43,144.089851 43,140.5 C43,136.910149 45.9101491,134 49.5,134 C53.0898509,134 56,136.910149 56,140.5 C56,144.089851 53.0898509,147 49.5,147 Z M49.5,103 C45.9101491,103 43,100.089851 43,96.5 C43,92.9101491 45.9101491,90 49.5,90 C53.0898509,90 56,92.9101491 56,96.5 C56,100.089851 53.0898509,103 49.5,103 Z M49.5,58 C45.9101491,58 43,55.0898509 43,51.5 C43,47.9101491 45.9101491,45 49.5,45 C53.0898509,45 56,47.9101491 56,51.5 C56,55.0898509 53.0898509,58 49.5,58 Z M49.5,13 C45.9101491,13 43,10.0898509 43,6.5 C43,2.91014913 45.9101491,0 49.5,0 C53.0898509,0 56,2.91014913 56,6.5 C56,10.0898509 53.0898509,13 49.5,13 Z M6.5,237 C2.91014913,237 -8.92635548e-14,234.089851 -8.92635548e-14,230.5 C-8.92635548e-14,226.910149 2.91014913,224 6.5,224 C10.0898509,224 13,226.910149 13,230.5 C13,234.089851 10.0898509,237 6.5,237 Z M6.5,192 C2.91014913,192 -9.45926253e-14,189.089851 -9.45926253e-14,185.5 C-9.45926253e-14,181.910149 2.91014913,179 6.5,179 C10.0898509,179 13,181.910149 13,185.5 C13,189.089851 10.0898509,192 6.5,192 Z M6.5,147 C2.91014913,147 -9.99216958e-14,144.089851 -9.99216958e-14,140.5 C-9.99216958e-14,136.910149 2.91014913,134 6.5,134 C10.0898509,134 13,136.910149 13,140.5 C13,144.089851 10.0898509,147 6.5,147 Z M6.5,103 C2.91014913,103 -1.05250766e-13,100.089851 -1.05250766e-13,96.5 C-1.05250766e-13,92.9101491 2.91014913,90 6.5,90 C10.0898509,90 13,92.9101491 13,96.5 C13,100.089851 10.0898509,103 6.5,103 Z M6.5,58 C2.91014913,58 -1.11468015e-13,55.0898509 -1.11468015e-13,51.5 C-1.11468015e-13,47.9101491 2.91014913,45 6.5,45 C10.0898509,45 13,47.9101491 13,51.5 C13,55.0898509 10.0898509,58 6.5,58 Z M6.5,13 C2.91014913,13 -1.16797086e-13,10.0898509 -1.16797086e-13,6.5 C-1.16797086e-13,2.91014913 2.91014913,0 6.5,0 C10.0898509,0 13,2.91014913 13,6.5 C13,10.0898509 10.0898509,13 6.5,13 Z" id="Shape" transform="translate(114.000000, 118.500000) rotate(-180.000000) translate(-114.000000, -118.500000) "></path>
            <path d="M474.5,237 C470.910149,237 468,234.089851 468,230.5 C468,226.910149 470.910149,224 474.5,224 C478.089851,224 481,226.910149 481,230.5 C481,234.089851 478.089851,237 474.5,237 Z M474.5,192 C470.910149,192 468,189.089851 468,185.5 C468,181.910149 470.910149,179 474.5,179 C478.089851,179 481,181.910149 481,185.5 C481,189.089851 478.089851,192 474.5,192 Z M474.5,147 C470.910149,147 468,144.089851 468,140.5 C468,136.910149 470.910149,134 474.5,134 C478.089851,134 481,136.910149 481,140.5 C481,144.089851 478.089851,147 474.5,147 Z M474.5,103 C470.910149,103 468,100.089851 468,96.5 C468,92.9101491 470.910149,90 474.5,90 C478.089851,90 481,92.9101491 481,96.5 C481,100.089851 478.089851,103 474.5,103 Z M474.5,58 C470.910149,58 468,55.0898509 468,51.5 C468,47.9101491 470.910149,45 474.5,45 C478.089851,45 481,47.9101491 481,51.5 C481,55.0898509 478.089851,58 474.5,58 Z M474.5,13 C470.910149,13 468,10.0898509 468,6.5 C468,2.91014913 470.910149,0 474.5,0 C478.089851,0 481,2.91014913 481,6.5 C481,10.0898509 478.089851,13 474.5,13 Z M431.5,237 C427.910149,237 425,234.089851 425,230.5 C425,226.910149 427.910149,224 431.5,224 C435.089851,224 438,226.910149 438,230.5 C438,234.089851 435.089851,237 431.5,237 Z M431.5,192 C427.910149,192 425,189.089851 425,185.5 C425,181.910149 427.910149,179 431.5,179 C435.089851,179 438,181.910149 438,185.5 C438,189.089851 435.089851,192 431.5,192 Z M431.5,147 C427.910149,147 425,144.089851 425,140.5 C425,136.910149 427.910149,134 431.5,134 C435.089851,134 438,136.910149 438,140.5 C438,144.089851 435.089851,147 431.5,147 Z M431.5,103 C427.910149,103 425,100.089851 425,96.5 C425,92.9101491 427.910149,90 431.5,90 C435.089851,90 438,92.9101491 438,96.5 C438,100.089851 435.089851,103 431.5,103 Z M431.5,58 C427.910149,58 425,55.0898509 425,51.5 C425,47.9101491 427.910149,45 431.5,45 C435.089851,45 438,47.9101491 438,51.5 C438,55.0898509 435.089851,58 431.5,58 Z M431.5,13 C427.910149,13 425,10.0898509 425,6.5 C425,2.91014913 427.910149,0 431.5,0 C435.089851,0 438,2.91014913 438,6.5 C438,10.0898509 435.089851,13 431.5,13 Z M389.5,237 C385.910149,237 383,234.089851 383,230.5 C383,226.910149 385.910149,224 389.5,224 C393.089851,224 396,226.910149 396,230.5 C396,234.089851 393.089851,237 389.5,237 Z M389.5,192 C385.910149,192 383,189.089851 383,185.5 C383,181.910149 385.910149,179 389.5,179 C393.089851,179 396,181.910149 396,185.5 C396,189.089851 393.089851,192 389.5,192 Z M389.5,147 C385.910149,147 383,144.089851 383,140.5 C383,136.910149 385.910149,134 389.5,134 C393.089851,134 396,136.910149 396,140.5 C396,144.089851 393.089851,147 389.5,147 Z M389.5,103 C385.910149,103 383,100.089851 383,96.5 C383,92.9101491 385.910149,90 389.5,90 C393.089851,90 396,92.9101491 396,96.5 C396,100.089851 393.089851,103 389.5,103 Z M389.5,58 C385.910149,58 383,55.0898509 383,51.5 C383,47.9101491 385.910149,45 389.5,45 C393.089851,45 396,47.9101491 396,51.5 C396,55.0898509 393.089851,58 389.5,58 Z M389.5,13 C385.910149,13 383,10.0898509 383,6.5 C383,2.91014913 385.910149,0 389.5,0 C393.089851,0 396,2.91014913 396,6.5 C396,10.0898509 393.089851,13 389.5,13 Z M344.5,237 C340.910149,237 338,234.089851 338,230.5 C338,226.910149 340.910149,224 344.5,224 C348.089851,224 351,226.910149 351,230.5 C351,234.089851 348.089851,237 344.5,237 Z M344.5,192 C340.910149,192 338,189.089851 338,185.5 C338,181.910149 340.910149,179 344.5,179 C348.089851,179 351,181.910149 351,185.5 C351,189.089851 348.089851,192 344.5,192 Z M344.5,147 C340.910149,147 338,144.089851 338,140.5 C338,136.910149 340.910149,134 344.5,134 C348.089851,134 351,136.910149 351,140.5 C351,144.089851 348.089851,147 344.5,147 Z M344.5,103 C340.910149,103 338,100.089851 338,96.5 C338,92.9101491 340.910149,90 344.5,90 C348.089851,90 351,92.9101491 351,96.5 C351,100.089851 348.089851,103 344.5,103 Z M344.5,58 C340.910149,58 338,55.0898509 338,51.5 C338,47.9101491 340.910149,45 344.5,45 C348.089851,45 351,47.9101491 351,51.5 C351,55.0898509 348.089851,58 344.5,58 Z M344.5,13 C340.910149,13 338,10.0898509 338,6.5 C338,2.91014913 340.910149,0 344.5,0 C348.089851,0 351,2.91014913 351,6.5 C351,10.0898509 348.089851,13 344.5,13 Z M302.5,237 C298.910149,237 296,234.089851 296,230.5 C296,226.910149 298.910149,224 302.5,224 C306.089851,224 309,226.910149 309,230.5 C309,234.089851 306.089851,237 302.5,237 Z M302.5,192 C298.910149,192 296,189.089851 296,185.5 C296,181.910149 298.910149,179 302.5,179 C306.089851,179 309,181.910149 309,185.5 C309,189.089851 306.089851,192 302.5,192 Z M302.5,147 C298.910149,147 296,144.089851 296,140.5 C296,136.910149 298.910149,134 302.5,134 C306.089851,134 309,136.910149 309,140.5 C309,144.089851 306.089851,147 302.5,147 Z M302.5,103 C298.910149,103 296,100.089851 296,96.5 C296,92.9101491 298.910149,90 302.5,90 C306.089851,90 309,92.9101491 309,96.5 C309,100.089851 306.089851,103 302.5,103 Z M302.5,58 C298.910149,58 296,55.0898509 296,51.5 C296,47.9101491 298.910149,45 302.5,45 C306.089851,45 309,47.9101491 309,51.5 C309,55.0898509 306.089851,58 302.5,58 Z M302.5,13 C298.910149,13 296,10.0898509 296,6.5 C296,2.91014913 298.910149,0 302.5,0 C306.089851,0 309,2.91014913 309,6.5 C309,10.0898509 306.089851,13 302.5,13 Z M259.5,237 C255.910149,237 253,234.089851 253,230.5 C253,226.910149 255.910149,224 259.5,224 C263.089851,224 266,226.910149 266,230.5 C266,234.089851 263.089851,237 259.5,237 Z M259.5,192 C255.910149,192 253,189.089851 253,185.5 C253,181.910149 255.910149,179 259.5,179 C263.089851,179 266,181.910149 266,185.5 C266,189.089851 263.089851,192 259.5,192 Z M259.5,147 C255.910149,147 253,144.089851 253,140.5 C253,136.910149 255.910149,134 259.5,134 C263.089851,134 266,136.910149 266,140.5 C266,144.089851 263.089851,147 259.5,147 Z M259.5,103 C255.910149,103 253,100.089851 253,96.5 C253,92.9101491 255.910149,90 259.5,90 C263.089851,90 266,92.9101491 266,96.5 C266,100.089851 263.089851,103 259.5,103 Z M259.5,58 C255.910149,58 253,55.0898509 253,51.5 C253,47.9101491 255.910149,45 259.5,45 C263.089851,45 266,47.9101491 266,51.5 C266,55.0898509 263.089851,58 259.5,58 Z M259.5,13 C255.910149,13 253,10.0898509 253,6.5 C253,2.91014913 255.910149,0 259.5,0 C263.089851,0 266,2.91014913 266,6.5 C266,10.0898509 263.089851,13 259.5,13 Z" id="Shape-Copy" transform="translate(367.000000, 118.500000) rotate(-180.000000) translate(-367.000000, -118.500000) "></path>
        </g>
        <circle id="Oval-Copy-3" stroke="#EEECEC" stroke-width="6" cx="44" cy="201" r="198"></circle>
    </g>
</svg>
